src/icons/menucard.fill.svg

<svg xmlns="http://www.w3.org/2000/svg" viewBox="0 0 20 20"><path d="M5.23248,1.12932L12.7184,2.45348c.7945.14124,1.4566.36193,2.0039.66208l-.0088-.58263c-.0354-1.915617-1.3683-2.8337-3.5488-2.44528L5.23248,1.12932ZM2.54886,18.2286l9.73694,1.7126c1.845.3266,2.9838-.7239,2.9838-2.7366v-10.65506c0-1.84499-.9004-2.56004-2.7719-2.88666L3.06086,1.99444c-1.38595-.23835-2.330513.54731-2.330513,1.92444v12.19992c0,1.1829.626763,1.8979,1.818513,2.1098ZM4.30557,7.26458c-.34428-.05296-.53849-.31779-.53849-.6709c0-.42373.33545-.70622.80332-.62677l6.7885,1.19174c.362.07062.5562.28249.5562.67091c0,.42373-.309.71504-.7769.64442L4.30557,7.26458Zm0,3.61932c-.33545-.0617-.53849-.3177-.53849-.6709c0-.41486.33545-.69735.80332-.6179l6.7885,1.1917c.362.0707.5562.2825.5562.6533c0,.4414-.309.7327-.7769.6621L4.30557,10.8839Z" transform="translate(2 0)" fill="currentColor"/></svg>

<svg width="16" height="20" viewBox="0 0 16 20" fill="none" xmlns="http://www.w3.org/2000/svg">
<path d="M5.23248 1.12932L12.7184 2.45348C13.5129 2.59472 14.175 2.81541 14.7223 3.11556L14.7135 2.53293C14.6781 0.617313 13.3452 -0.30077 11.1647 0.0876497L5.23248 1.12932ZM2.54886 18.2286L12.2858 19.9412C14.1308 20.2678 15.2696 19.2173 15.2696 17.2046V6.54954C15.2696 4.70455 14.3692 3.9895 12.4977 3.66288L3.06086 1.99444C1.67491 1.75609 0.730347 2.54175 0.730347 3.91888V16.1188C0.730347 17.3017 1.35711 18.0167 2.54886 18.2286ZM4.30557 7.26458C3.96129 7.21162 3.76708 6.94679 3.76708 6.59368C3.76708 6.16995 4.10253 5.88746 4.5704 5.96691L11.3589 7.15865C11.7209 7.22927 11.9151 7.44114 11.9151 7.82956C11.9151 8.25329 11.6061 8.5446 11.1382 8.47398L4.30557 7.26458ZM4.30557 10.8839C3.97012 10.8222 3.76708 10.5662 3.76708 10.213C3.76708 9.79814 4.10253 9.51565 4.5704 9.5951L11.3589 10.7868C11.7209 10.8575 11.9151 11.0693 11.9151 11.4401C11.9151 11.8815 11.6061 12.1728 11.1382 12.1022L4.30557 10.8839Z" fill="white"/>
</svg>
